checkerboard-plus.svg

<svg fill="currentColor" viewBox="0 0 24 24"><path d="M19 17h3v2h-3v3h-2v-3h-3v-2h3v-3h2zM8 16h4v-4H8zm4-4h4V8h-4zM2 2v20h11.54c-.54-.58-.91-1.26-1.18-2H8v-4H4v-4h4V8H4V4h4v4h4V4h4v4h4v4.36c.74.27 1.42.64 2 1.18V2z"/></svg>

<svg  viewBox="0 0 24 24" fill="currentColor"><path  d="M19 17H22V19H19V22H17V19H14V17H17V14H19V17M8 16H12V12H8V16M12 12H16V8H12V12M2 2V22H13.54C13 21.42 12.63 20.74 12.36 20H8V16H4V12H8V8H4V4H8V8H12V4H16V8H20V12.36C20.74 12.63 21.42 13 22 13.54V2H2Z"/></svg>
